X:351
T:Jack A' Tar
R:Hornpipe
N:The Cuckoo's Nest
B:The Athole Collection
M:C|
L:1/8
K:G
B2|e2 e2 efge|d2 (B2 B2) dB|ABde faef|d2 A2 A2 z2|e2 ef g2 fe|
dBGB d2 BA|GFGE DEFA|G2 E2 E2||GA|BGEG BGEG|
BAGF E2 FG|AFDF AFDF|AGFE D2 EF|GFGE g2 fe|dBGB d2 BA|
GFGE DEFA|G2 E2 E2||

